X:1271
T:Tom Steele
M:C|
L:1/8
R:Reel
B:O'Neill's 1271
N:Collected by McFadden
Z:Transcribed by Trish O'Neil
K:D
dD 3DDD FA3ABc|dfaf gfec|dD 3DDD FAedc|BGEF GABc|
dD 3DDD FA3ABc|dfaf 3gag bg|afge fded|BGEF GABc||
d2fd adfd|3ded af gfec|d2fd adfd|BGEF GABc|
d2fd adfd|3ded af g2fg|3agf 3gfe fded|BGEF GABc||
